X:1
T:From the Cross to the Crown
T:From the Cross to the Crown
T:John Robson Sweney
T:Frances Jane (Fanny) Crosby, 1907
T:Public Domain Courtesy of the Cyber Hymnal™
T:Public Domain Courtesy of the Cyber Hymnal™
C:John Robson Sweney
Z:Public Domain
Z:Courtesy of the Cyber Hymnal™
%%score ( 1 2 ) ( 3 4 )
L:1/8
Q:1/4=105
M:4/4
K:Eb
V:1 treble 
V:2 treble 
V:3 bass 
V:4 bass 
V:1
 [GB] | [Ge]2 [EG][FA] [GB]2 E[EG] | ([EG]>[B,F]) [B,E][B,D] [B,E]3 [EG] | %3
w: 1.~Be|strong and cour- a- geous what-|e’er * may be- fall, We|
w: 2.~His|cup of af- flic- tion was|filled * to the brim, And|
w: 3.~This|life is a con- flict, a|bat- * tle with sin, Yet|
w: 4.~Tho’|friends that are dear- est have|gone * from our sight, ’Tis|
 [DF]2 [DF][EG] [FA]2 [Bd][Ac] | ([Ac]>[GB]) [GB][FA] [EG]3 [GB] | [Ge]2 [EG][FA] [GB]2 E[EG] | %6
w: know our Re- deem- er will|an- * swer our call; Tho’|sor- row and tri- als are|
w: are we not will- ing to|suf- * fer for Him? The|robe of His glo- ry for|
w: trust- ing in Je- sus thro’|grace * we shall win; The|world may op- pose us, the|
w: on- ly to en- ter the|man- * sions of light; Their|war- fare is o- ver, their|
 ([EG]>[B,F]) [B,E][B,D] [B,E]3 [EG] | [DF]2 [Ec][Ec] [EB]2 [EG][Ge] | [Ad]2 [Ac][Ad] [Ge]3 || %9
w: weigh- * ing us down, Yet|hope looks a- way from the|cross to the crown.|
w: us * He laid down, To|show us the path from the|cross to the crown.|
w: tempt- * er may frown, Yet|faith lead- eth on from the|cross to the crown.|
w: bur- * dens laid down, How|short was their path from the|cross to the crown!|
"^Refrain" [GB][Ge] | [Ad]2 [DF][EG] [FA]2 [Bd][Ac] | ([Ac]>[GB]) E[EF] [EG]2 [GB][Ge] | %12
w: |||
w: |||
w: |||
w: |||
 [Ad]2 [DF][EG] [FA]2 [Bd][Ac] | ([Ac]>[GB]) [GB][FA] [EG]3 [EG] | [FG]2 [FG][FG] [Ec]2 [EG][EG] | %15
w: |||
w: |||
w: |||
w: |||
 [Fd]2 [FG][FG] [Ee]3 [Ge] | [Ae]2 [Bd][Ac] [GB]2 E[EG] | ([EG]>[B,F]) [B,E][B,D] [B,E]3 |] %18
w: |||
w: |||
w: |||
w: |||
V:2
 x | x6 E x | x8 | x8 | x8 | x6 E x | x8 | x8 | x7 || x2 | x8 | x2 E x5 | x8 | x8 | x8 | x8 | %16
 x6 E x | x7 |] %18
V:3
 [E,B,] | [E,B,]2 [E,B,][E,B,] [E,E]2 [G,B,]B, | (B,>A,) [B,,G,][B,,F,] [E,G,]3 [E,B,] | %3
w: ~|~ ~ ~ ~ ~ ~|~ * ~ ~ ~ ~|
 [B,,B,]2 [B,,B,][B,,B,] [B,,B,]2 [B,,B,][B,,B,] | [E,B,]2 [E,B,][E,B,] [E,B,]3 [E,B,] | %5
w: ~ ~ ~ ~ ~ ~|~ ~ ~ ~ ~|
 [E,B,]2 [E,B,][E,B,] [E,E]2 [G,B,]B, | (B,>A,) [B,,G,][B,,F,] [E,G,]3 [E,B,] | %7
w: ~ ~ ~ ~ ~ ~|~ * ~ ~ ~ ~|
 [A,C]2 A,A, [G,B,]2 [E,B,][E,B,] | B,2 [B,,B,][B,,B,] [E,B,]3 || [E,B,][E,B,] | %10
w: ~ ~ ~ ~ ~ ~|~ ~ ~ ~|From the|
 [F,B,]2 B,B, [B,,B,]2 [B,,B,][B,,B,] | [E,B,]2 [E,G,][E,A,] [E,B,]2 [E,B,][E,B,] | %12
w: cross to the crown let us|fol- low our Lord, From the|
 [F,B,]2 B,B, [B,,B,]2 [B,,B,][B,,B,] | [E,B,]2 [E,B,][E,B,] [E,B,]3 [E,B,] | %14
w: cross to the crown let us|cling to His Word; Tho’|
 [D,=B,]2 [D,B,][D,B,] [C,C]2 [C,C][C,C] | [G,=B,]2 [G,B,][G,B,] [C,C]3 [C,C] | %16
w: sor- row and tri- als are|weigh- ing us down, Yet|
 [A,C]2 [A,E][A,E] [E,E]2 [G,B,]B, | (B,>A,) [B,,G,][B,,F,] [E,G,]3 |] %18
w: faith leads us on from the|cross * to the crown!|
V:4
 x | x7 B, | B,,2 x6 | x8 | x8 | x7 B, | B,,2 x6 | x2 A,A, x4 | B,2 x5 || x2 | x2 B,B, x4 | x8 | %12
 x2 B,B, x4 | x8 | x8 | x8 | x7 B, | B,,2 x5 |] %18

